public/images/logo/logo-icon.svg

<svg width="32" height="32" viewBox="0 0 32 32" fill="none" xmlns="http://www.w3.org/2000/svg">
<path d="M0 8.42105C0 3.77023 3.77023 0 8.42105 0H23.5789C28.2298 0 32 3.77023 32 8.42105V23.5789C32 28.2298 28.2298 32 23.5789 32H8.42105C3.77023 32 0 28.2298 0 23.5789V8.42105Z" fill="#465FFF"/>
<g filter="url(#filter0_d_1884_16361)">
<path d="M8.42383 8.42152C8.42383 7.49135 9.17787 6.7373 10.108 6.7373C11.0382 6.7373 11.7922 7.49135 11.7922 8.42152V23.5794C11.7922 24.5096 11.0382 25.2636 10.108 25.2636C9.17787 25.2636 8.42383 24.5096 8.42383 23.5794V8.42152Z" fill="white"/>
</g>
<g filter="url(#filter1_d_1884_16361)">
<path d="M14.7422 15.1569C14.7422 14.2267 15.4962 13.4727 16.4264 13.4727C17.3566 13.4727 18.1106 14.2267 18.1106 15.1569V23.5779C18.1106 24.5081 17.3566 25.2621 16.4264 25.2621C15.4962 25.2621 14.7422 24.5081 14.7422 23.5779V15.1569Z" fill="white" fill-opacity="0.9" shape-rendering="crispEdges"/>
</g>
<g filter="url(#filter2_d_1884_16361)">
<path d="M21.0547 10.9459C21.0547 10.0158 21.8087 9.26172 22.7389 9.26172C23.6691 9.26172 24.4231 10.0158 24.4231 10.9459V23.5775C24.4231 24.5077 23.6691 25.2617 22.7389 25.2617C21.8087 25.2617 21.0547 24.5077 21.0547 23.5775V10.9459Z" fill="white" fill-opacity="0.7" shape-rendering="crispEdges"/>
</g>
<defs>
<filter id="filter0_d_1884_16361" x="7.42383" y="6.2373" width="5.36841" height="20.5264" filterUnits="userSpaceOnUse" color-interpolation-filters="sRGB">
<feFlood flood-opacity="0" result="BackgroundImageFix"/>
<feColorMatrix in="SourceAlpha" type="matrix" values="0 0 0 0 0 0 0 0 0 0 0 0 0 0 0 0 0 0 127 0" result="hardAlpha"/>
<feOffset dy="0.5"/>
<feGaussianBlur stdDeviation="0.5"/>
<feComposite in2="hardAlpha" operator="out"/>
<feColorMatrix type="matrix" values="0 0 0 0 0 0 0 0 0 0 0 0 0 0 0 0 0 0 0.12 0"/>
<feBlend mode="normal" in2="BackgroundImageFix" result="effect1_dropShadow_1884_16361"/>
<feBlend mode="normal" in="SourceGraphic" in2="effect1_dropShadow_1884_16361" result="shape"/>
</filter>
<filter id="filter1_d_1884_16361" x="13.7422" y="12.9727" width="5.36841" height="13.7891" filterUnits="userSpaceOnUse" color-interpolation-filters="sRGB">
<feFlood flood-opacity="0" result="BackgroundImageFix"/>
<feColorMatrix in="SourceAlpha" type="matrix" values="0 0 0 0 0 0 0 0 0 0 0 0 0 0 0 0 0 0 127 0" result="hardAlpha"/>
<feOffset dy="0.5"/>
<feGaussianBlur stdDeviation="0.5"/>
<feComposite in2="hardAlpha" operator="out"/>
<feColorMatrix type="matrix" values="0 0 0 0 0 0 0 0 0 0 0 0 0 0 0 0 0 0 0.12 0"/>
<feBlend mode="normal" in2="BackgroundImageFix" result="effect1_dropShadow_1884_16361"/>
<feBlend mode="normal" in="SourceGraphic" in2="effect1_dropShadow_1884_16361" result="shape"/>
</filter>
<filter id="filter2_d_1884_16361" x="20.0547" y="8.76172" width="5.36841" height="18" filterUnits="userSpaceOnUse" color-interpolation-filters="sRGB">
<feFlood flood-opacity="0" result="BackgroundImageFix"/>
<feColorMatrix in="SourceAlpha" type="matrix" values="0 0 0 0 0 0 0 0 0 0 0 0 0 0 0 0 0 0 127 0" result="hardAlpha"/>
<feOffset dy="0.5"/>
<feGaussianBlur stdDeviation="0.5"/>
<feComposite in2="hardAlpha" operator="out"/>
<feColorMatrix type="matrix" values="0 0 0 0 0 0 0 0 0 0 0 0 0 0 0 0 0 0 0.12 0"/>
<feBlend mode="normal" in2="BackgroundImageFix" result="effect1_dropShadow_1884_16361"/>
<feBlend mode="normal" in="SourceGraphic" in2="effect1_dropShadow_1884_16361" result="shape"/>
</filter>
</defs>
</svg>

<?xml version="1.0"?>
<svg width="32" height="32" xmlns="http://www.w3.org/2000/svg" xmlns:svg="http://www.w3.org/2000/svg">
 <defs>
  <filter color-interpolation-filters="sRGB" filterUnits="userSpaceOnUse" height="20.53" id="filter0_d_1884_16361" width="5.37" x="7.42" y="6.24">
   <feFlood flood-opacity="0" result="BackgroundImageFix"/>
   <feColorMatrix in="SourceAlpha" result="hardAlpha" type="matrix" values="0 0 0 0 0 0 0 0 0 0 0 0 0 0 0 0 0 0 127 0"/>
   <feOffset dy="0.5"/>
   <feGaussianBlur stdDeviation="0.5"/>
   <feComposite in2="hardAlpha" operator="out"/>
   <feColorMatrix type="matrix" values="0 0 0 0 0 0 0 0 0 0 0 0 0 0 0 0 0 0 0.12 0"/>
   <feBlend in2="BackgroundImageFix"/>
   <feBlend in="SourceGraphic" in2="effect1_dropShadow_1884_16361"/>
  </filter>
  <filter color-interpolation-filters="sRGB" filterUnits="userSpaceOnUse" height="13.79" id="filter1_d_1884_16361" width="5.37" x="13.74" y="12.97">
   <feFlood flood-opacity="0" result="BackgroundImageFix"/>
   <feColorMatrix in="SourceAlpha" result="hardAlpha" type="matrix" values="0 0 0 0 0 0 0 0 0 0 0 0 0 0 0 0 0 0 127 0"/>
   <feOffset dy="0.5"/>
   <feGaussianBlur stdDeviation="0.5"/>
   <feComposite in2="hardAlpha" operator="out"/>
   <feColorMatrix type="matrix" values="0 0 0 0 0 0 0 0 0 0 0 0 0 0 0 0 0 0 0.12 0"/>
   <feBlend in2="BackgroundImageFix"/>
   <feBlend in="SourceGraphic" in2="effect1_dropShadow_1884_16361"/>
  </filter>
  <filter color-interpolation-filters="sRGB" filterUnits="userSpaceOnUse" height="18" id="filter2_d_1884_16361" width="5.37" x="20.05" y="8.76">
   <feFlood flood-opacity="0" result="BackgroundImageFix"/>
   <feColorMatrix in="SourceAlpha" result="hardAlpha" type="matrix" values="0 0 0 0 0 0 0 0 0 0 0 0 0 0 0 0 0 0 127 0"/>
   <feOffset dy="0.5"/>
   <feGaussianBlur stdDeviation="0.5"/>
   <feComposite in2="hardAlpha" operator="out"/>
   <feColorMatrix type="matrix" values="0 0 0 0 0 0 0 0 0 0 0 0 0 0 0 0 0 0 0.12 0"/>
   <feBlend in2="BackgroundImageFix"/>
   <feBlend in="SourceGraphic" in2="effect1_dropShadow_1884_16361"/>
  </filter>
 </defs>
 <g class="layer">
  <title>Layer 1</title>
  <path d="m0.5,8.42c0,-4.65 3.77,-8.42 8.42,-8.42l15.16,0c4.65,0 8.42,3.77 8.42,8.42l0,15.16c0,4.65 -3.77,8.42 -8.42,8.42l-15.16,0c-4.65,0 -8.42,-3.77 -8.42,-8.42l0,-15.16z" fill="#465FFF" id="svg_1"/>
  <g filter="url(#filter0_d_1884_16361)" id="svg_2" transform="matrix(1 0 0 1 0 0)">
   <path d="m8.42,8.42c0,-0.93 0.76,-1.68 1.69,-1.68c0.93,0 1.68,0.75 1.68,1.68l0,15.16c0,0.93 -0.75,1.68 -1.68,1.68c-0.93,0 -1.69,-0.75 -1.69,-1.68l0,-15.16z" fill="white" id="svg_3"/>
  </g>
  <g filter="url(#filter1_d_1884_16361)" id="svg_4">
   <path d="m14.74,15.16c0,-0.93 0.76,-1.69 1.69,-1.69c0.93,0 1.68,0.76 1.68,1.69l0,8.42c0,0.93 -0.75,1.68 -1.68,1.68c-0.93,0 -1.69,-0.75 -1.69,-1.68l0,-8.42z" fill="white" fill-opacity="0.9" id="svg_5"/>
  </g>
  <g filter="url(#filter2_d_1884_16361)" id="svg_6">
   <path d="m21.05,10.95c0,-0.93 0.76,-1.69 1.69,-1.69c0.93,0 1.68,0.76 1.68,1.69l0,12.63c0,0.93 -0.75,1.68 -1.68,1.68c-0.93,0 -1.69,-0.75 -1.69,-1.68l0,-12.63z" fill="white" fill-opacity="0.7" id="svg_7"/>
  </g>
  <rect fill="#465FFF" height="0" id="svg_8" width="0" x="-73.5" y="91.25"/>
  <text fill="#000000" font-family="Sans-serif" font-size="24" id="svg_9" letter-spacing="2" stroke-width="0" text-anchor="middle" transform="matrix(1.08072 0 0 1 -3.1494 0)" x="91.03" xml:space="preserve" y="25.25">Datalyst</text>
 </g>
</svg>
